!!!COM: Palestrina, Giovanni Perluigi da
!!!OPR: Missa Dum esset summus pontifex
!!!OTL: Agnus II
**kern	**kern	**kern	**kern	**kern
*Ibass	*Itenor	*Icalto	*Icalto	*Icant
!Bassus	!Tenor	!Altus 2	!Altus 1	!Cantus
*clefF4	*clefGv2	*clefG2	*clefG2	*clefG2
*k[]	*k[]	*k[]	*k[]	*k[]
*A:aeo	*A:aeo	*A:aeo	*A:aeo	*A:aeo
*M4/2	*M4/2	*M4/2	*M4/2	*M4/2
=1	=1	=1	=1	=1
0r	0r	0r	1d	0r
.	.	.	2f	.
.	.	.	2g	.
=2	=2	=2	=2	=2
1D	0r	1d	2.a	0r
.	.	.	4g	.
2F	.	1d	2f	.
2G	.	.	4e	.
.	.	.	4d	.
=3	=3	=3	=3	=3
2.A	0r	1c	2f	0r
.	.	.	2.e	.
4G	.	.	.	.
2F	.	1f	.	.
.	.	.	4d	.
4E	.	.	[2d	.
4D	.	.	.	.
=4	=4	=4	=4	=4
1E	1r	1g	2d]	1r
.	.	.	2c#	.
1D	1A	2.f	1d	1a
.	.	8e	.	.
.	.	8d	.	.
=5	=5	=5	=5	=5
0r	2c	2e	2A	1a
.	2d	2f	2a	.
.	2.e	2c	2cc	1g
.	.	[2e	[2b	.
.	4d	.	.	.
=6	=6	=6	=6	=6
0r	2c	2e]	4b]	1cc
.	.	.	4a	.
.	4B	2f	1a	.
.	4A	.	.	.
.	1B	1d	.	1dd
.	.	.	2g#	.
=7	=7	=7	=7	=7
0r	1A	2.e	2a	1cc
.	.	.	1cc	.
.	.	4c	.	.
.	1G	1g	.	1dd
.	.	.	2b	.
=8	=8	=8	=8	=8
2r	2.c	1e	1cc	1.ee
2A	.	.	.	.
.	4d	.	.	.
2c	2e	2r	1a	.
2d	2f	[2a	.	2dd
=9	=9	=9	=9	=9
2.e	1e	2a]	1r	2cc
.	.	2g#	.	2b
4d	.	.	.	.
2c	2A	2a	2r	2cc
4B	2c	2e	[2a	[2ee
4A	.	.	.	.
=10	=10	=10	=10	=10
1B	1d	1r	2a]	4ee]
.	.	.	.	4dd
.	.	.	2g#	1dd
1A	1e	2r	2a	.
.	.	2a	2e	2cc#
=11	=11	=11	=11	=11
2r	2d	1a	2.f	0dd
2D	2d	.	.	.
.	.	.	4g	.
4D	1f	2d	2a	.
4E	.	.	.	.
4F	.	2d	2a	.
4G	.	.	.	.
=12	=12	=12	=12	=12
4A	1e	4c	1cc	0r
4B	.	4d	.	.
2c	.	4e	.	.
.	.	4f	.	.
2G	1d	2.g	1b	.
2G	.	.	.	.
.	.	4f	.	.
=13	=13	=13	=13	=13
2A	2c	2e	1a	0r
2F	2d	2A	.	.
2E	[1e	2B	2g	.
2A	.	2c	2a	.
=14	=14	=14	=14	=14
2G#	1e]	2B	2b	0r
1A	.	2A	2.cc	.
.	2.c	2e	.	.
.	.	.	4b	.
2F	.	2f	[2a	.
.	8B-	.	.	.
.	8A	.	.	.
=15	=15	=15	=15	=15
1G	1B-	1d	2a]	1dd
.	.	.	2g	.
4D	1A	2r	2a	1ff
4E	.	.	.	.
4F	.	2a	2d	.
4G	.	.	.	.
=16	=16	=16	=16	=16
4A	1r	1cc	4c	1ee
4B	.	.	4d	.
2c	.	.	4e	.
.	.	.	4f	.
1G	2r	1b	2g	1dd
.	2d	.	2g	.
=17	=17	=17	=17	=17
0r	1f	1a	2r	2cc
.	.	.	2a	2dd
.	2e	2g#	2b	[1ee
.	2A	2a	2cc	.
=18	=18	=18	=18	=18
0r	2G#	2b	2b	1ee]
.	2.A	2.cc	2a	.
.	.	.	1e	2.cc
.	4B	4b	.	.
.	2c	[2a	.	.
.	.	.	.	8b
.	.	.	.	8a
=19	=19	=19	=19	=19
1r	2d	2a]	2r	2b
.	2e	2g	2e	2.cc
2r	2A	1a	2f	.
.	.	.	.	4b
2A	2c	.	[2e	[2a
=20	=20	=20	=20	=20
1B-	1d	1r	4e]	2a]
.	.	.	4d	.
.	.	.	1d	2g
1A	2.e	2r	.	1a
.	.	2a	2c#	.
.	4f	.	.	.
=21	=21	=21	=21	=21
1G	1g	1b-	0d	0r
2F	2r	2a	.	.
2G	[2d	2g	.	.
=22	=22	=22	=22	=22
0A	2d]	2f	2r	1r
.	4c	2e	2a	.
.	4B	.	.	.
.	1c	2f	[1a	2r
.	.	[2e	.	2ee
=23	=23	=23	=23	=23
2.F	2A	4e]	1a]	1ff
.	.	4d	.	.
.	2A	1d	.	.
8E	.	.	.	.
8D	.	.	.	.
1E	1e	.	1g	2gg
.	.	2c#	.	2ee
=24	=24	=24	=24	=24
1D	2A	1d	2.f	2ff
.	2d	.	.	2dd
.	.	.	4e	.
1r	2d	1a	2d	2ff
.	2c	.	2e	[2ee
=25	=25	=25	=25	=25
0r	2B-	2b-	2f	4ee]
.	.	.	.	4dd
.	2G	2b-	2g	1dd
.	1A	1a	1e	.
.	.	.	.	2cc#
=26	=26	=26	=26	=26
1.B-	2r	2.f	1d	1dd
.	1d	.	.	.
.	.	4e	.	.
.	.	4d	[1f	1r
.	.	4e	.	.
2B-	2d	4f	.	.
.	.	4g	.	.
=27	=27	=27	=27	=27
2A	2c	1a	2f]	2r
2F	2A	.	2f	1cc
1A	1c	1r	2e	.
.	.	.	2f	2cc
=28	=28	=28	=28	=28
2G	2d	1r	1g	2b
2E	2G	.	.	2cc
4D	2.A	2r	1f	1dd
4E	.	.	.	.
4F	.	[2a	.	.
4G	4B	.	.	.
=29	=29	=29	=29	=29
4A	1c	2a]	1e	1cc
4B	.	.	.	.
4c	.	2e	.	.
4A	.	.	.	.
4B	1G	2.g	1d	1b
4c	.	.	.	.
[2d	.	.	.	.
.	.	4f	.	.
=30	=30	=30	=30	=30
4d]	1A	1e	2r	0a
8c#	.	.	.	.
8B	.	.	.	.
2c#	.	.	2e	.
2d	2r	2d	2f	.
2D	2d	[2f	[2a	.
=31	=31	=31	=31	=31
2.F	2c	2f]	2a]	2r
.	2A	2f	2a	1cc
4G	.	.	.	.
1A	1c	2e	1a	.
.	.	2f	.	2cc
=32	=32	=32	=32	=32
2G	2d	0g	2d	2b
1c	2c	.	2e	2cc
.	1G	.	1d	1dd
2B	.	.	.	.
=33	=33	=33	=33	=33
2c	1r	2e	2r	0cc
2.F	.	1a	1f	.
.	[1c	.	.	.
4G	.	.	.	.
4A	.	2a	2f	.
4B	.	.	.	.
=34	=34	=34	=34	=34
2c	2c]	2g	2e	2r
2A	2c	2c	2f	2a
2G	2B	2d	1g	2dd
2E	2c	2G	.	2ee
=35	=35	=35	=35	=35
1D	1d	2.A	1f	0a
.	.	4B	.	.
1A	[1c	4c	1e	.
.	.	4d	.	.
.	.	2e	.	.
=36	=36	=36	=36	=36
1A	2c]	2A	2.c	0ee
.	4B	1a	.	.
.	4A	.	4d	.
1E	1B	.	1e	.
.	.	2g#	.	.
=37	=37	=37	=37	=37
0A	0A	0a	0e	0cc#
==	==	==	==	==
*-	*-	*-	*-	*-
!!!CDT: 1525/^1526/-1594/2/2
!!!OCY: Italia
!!!AGN: Mass (Paraphrase)
!!!AST: renaissance, vocal
!!!ASW: Antiphon
!!!PWK: Masses, Book 8
!!!RNB: Cadence finals: D
!!!YOR: Le Opere Complete, v. 24, p. 32
!!!YOO: Rome, Italy: Fratelli Scalera
!!!END: 1992//
!!!EED: John Miller
!!!YEC: Copyright 2000, John Miller
!!!YEN: United States of America
!!!YEM: Rights to all derivative electronic formats reserved.
!!!YEM: Refer to licensing agreement for further details.
!!!YEM: This file must be accompanied by the licensing agreement.
!!!YEM: A copy of the licensing agreement may be found at http://www.music-cog.ohio-state.edu/HumdrumDatabases/Palestrina/license.txt
!!!EMD: converted to Humdrum by Bret Aarden
